packages/core/src/svgs/mnb.svg

<svg width="24" height="24" viewBox="0 0 24 24" fill="none" xmlns="http://www.w3.org/2000/svg">
<g clip-path="url(#clip0_31_14041)">
<path d="M0 0H24V24H0V0Z" fill="#F0F3FA"/>
<path d="M12 4.28564L13.7143 5.30564V6.67707L17.5714 8.95707V12.1028L16.7143 12.6599V9.4285L12.0385 6.62136L11.7943 6.44136L12.5743 5.99993L13.0371 6.27422V5.69993L12 5.09136L10.9628 5.70422V6.9385L12 7.55136L12.39 7.31993L13.0671 7.72279L12.4285 8.10422V8.9785L15 10.5042V13.5899L15.7928 14.0571L17.1128 13.2856L18.8571 14.3056V16.3371L17.1128 17.3571L15.8143 16.5985L12 18.8571L9.42854 17.3356V16.3714L12 17.9142L16.62 15.1414L17.0314 14.9228V15.8742L16.4957 16.1914L17.1128 16.5471L18.1671 15.9342V14.6999L17.1128 14.0871L16.0543 14.6999V15.1542L15.3685 15.5571V14.6142L14.7171 14.2371L12 15.8571L9.29997 14.2542L8.57139 14.6828V16.3414L6.85711 17.3571L5.14282 16.3371V14.3056L6.42854 13.5385V8.95707L9.08568 7.38422L9.89997 7.85564L7.28568 9.4285V15.4499L6.42854 14.9271V14.3442L5.81997 14.7042V15.9385L6.85711 16.5514L7.89425 15.9385V14.6999L7.56854 14.5071V13.7142L8.20282 14.0871L8.99997 13.6199V10.4999L11.5714 8.97422V8.09993L10.2857 7.33279V5.29707L12 4.28564ZM13.4785 11.1299L12 10.2471L10.53 11.1256L12.0257 11.9699L13.4828 11.1299H13.4785ZM10.2814 11.5456V13.3114L11.7814 14.2028V12.4285L10.2814 11.5414V11.5456ZM12.24 14.1856L13.7143 13.3114V11.5714L12.2443 12.4285V14.1814L12.24 14.1856Z" fill="url(#paint0_linear_31_14041)"/>
</g>
<defs>
<linearGradient id="paint0_linear_31_14041" x1="12" y1="4.28564" x2="12" y2="18.8571" gradientUnits="userSpaceOnUse">
<stop stop-color="#2DE7F4"/>
<stop offset="1" stop-color="#082E9A"/>
</linearGradient>
<clipPath id="clip0_31_14041">
<rect width="24" height="24" fill="white"/>
</clipPath>
</defs>
</svg>

<svg xmlns="http://www.w3.org/2000/svg" width="24" height="24" fill="none" viewBox="0 0 24 24"><g clip-path="url(#a)"><path fill="#F0F3FA" d="M0 0h24v24H0z"/><path fill="url(#b)" d="m12 4.286 1.714 1.02v1.371l3.857 2.28v3.146l-.857.557V9.428L12.04 6.621l-.245-.18.78-.441.463.274V5.7L12 5.09l-1.037.613V6.94L12 7.55l.39-.231.677.403-.639.381v.875L15 10.504v3.086l.793.467 1.32-.771 1.744 1.02v2.031l-1.744 1.02-1.299-.758L12 18.857l-2.571-1.521v-.965L12 17.914l4.62-2.773.411-.218v.951l-.535.317.617.356 1.054-.613V14.7l-1.054-.613-1.059.613v.454l-.685.403v-.943l-.652-.377L12 15.857l-2.7-1.603-.729.429v1.658l-1.714 1.016-1.714-1.02v-2.031l1.286-.767V8.957l2.657-1.573.814.472-2.614 1.572v6.022l-.857-.523v-.583l-.609.36v1.234l1.037.613 1.037-.612v-1.24l-.325-.192v-.793l.634.373L9 13.62V10.5l2.571-1.526V8.1l-1.285-.767V5.297zm1.479 6.844L12 10.247l-1.47.879 1.496.844 1.457-.84zm-3.198.416v1.765l1.5.892v-1.774l-1.5-.888zm1.959 2.64 1.474-.875v-1.74l-1.47.857v1.753z"/></g><defs><linearGradient id="b" x1="12" x2="12" y1="4.286" y2="18.857" gradientUnits="userSpaceOnUse"><stop stop-color="#2DE7F4"/><stop offset="1" stop-color="#082E9A"/></linearGradient><clipPath id="a"><path fill="#fff" d="M0 0h24v24H0z"/></clipPath></defs></svg>
